app/assets/images/remix_icon/health/lungs-line.svg

<svg viewBox="0 0 24 24" xmlns="http://www.w3.org/2000/svg"><path d="M22.0013 17C22 21 22 21 18.0012 21C14.0012 21 13.0013 18 13.0013 15C13.0013 14.6216 12.9834 14.0822 12.9746 13.4495L14.9976 14.6186L15.0013 15C15.0013 17.7759 15.8173 19 18.0012 19C19.1415 19 19.6118 18.993 19.9637 18.9625C19.9943 18.6106 20.0012 18.1403 20.0012 17C20.0012 13.7947 19.298 10.9675 18.1657 9.09922C17.3283 7.71769 16.5533 7.2575 16.1337 7.39737C15.8411 7.49489 15.5286 8.04672 15.3027 9.02034L13.5124 7.98683C13.882 6.79047 14.4945 5.83557 15.5013 5.5C18.5007 4.50018 22.0036 9.5 22.0013 17ZM8.5 5.5C9.50665 5.83555 10.1192 6.79037 10.4888 7.98665L8.69853 9.02034C8.47269 8.04672 8.16013 7.49489 7.86754 7.39737C7.44794 7.2575 6.67292 7.71769 5.83557 9.09922C4.70322 10.9675 4 13.7947 4 17C4 18.1403 4.00698 18.6106 4.0375 18.9625C4.3894 18.993 4.85973 19 6 19C8.18395 19 9 17.7759 9 15L9.00367 14.6176L11.0266 13.4502C11.0179 14.0826 11 14.6218 11 15C11 18 10 21 6 21C2 21 2 21 2 17C2 9.5 5.50055 4.50018 8.5 5.5ZM13 2L12.9998 9.422L17.6962 12.134L16.6962 13.866L11.9998 11.155L7.30385 13.866L6.30385 12.134L10.9998 9.422L11 2H13Z"/></svg>

<svg xmlns="http://www.w3.org/2000/svg" viewBox="0 0 24 24">
    <g>
        <path fill="none" d="M0 0H24V24H0z"/>
        <path d="M22.001 17c-.001 4-.001 4-4 4-4 0-5-3-5-6 0-.378-.018-.918-.026-1.55l2.023 1.169L15 15c0 2.776.816 4 3 4 1.14 0 1.61-.007 1.963-.038.03-.351.037-.822.037-1.962 0-3.205-.703-6.033-1.835-7.9-.838-1.382-1.613-1.843-2.032-1.703-.293.098-.605.65-.831 1.623l-1.79-1.033c.369-1.197.982-2.151 1.988-2.487 3-1 6.503 4 6.5 11.5zM8.5 5.5c1.007.336 1.62 1.29 1.989 2.487L8.699 9.02c-.226-.973-.539-1.525-.831-1.623-.42-.14-1.195.32-2.032 1.702C4.703 10.967 4 13.795 4 17c0 1.14.007 1.61.038 1.962.351.031.822.038 1.962.038 2.184 0 3-1.224 3-4l.004-.382 2.023-1.168c-.01.633-.027 1.172-.027 1.55 0 3-1 6-5 6s-4 0-4-4C2 9.5 5.5 4.5 8.5 5.5zM13 2v7.422l4.696 2.712-1 1.732L12 11.155l-4.696 2.711-1-1.732L11 9.422V2h2z"/>
    </g>
</svg>
